X:1
T:Skye Boat Air
C:Harold Boulton / Annie MacLeod melody (1884)
S:Public domain or original as noted in notes.md
M:6/8
L:1/8
Q:3/8=54
K:Amix
H:A mixolydian starter arrangement for Great Highland Bagpipe. Refs #1
A2 d d2 f | e2 d B2 A | d2 f a2 f | e3 d3 |
A2 d d2 f | e2 d B2 G | A2 B d2 B | A3 A3 |
f2 a a2 f | e2 d B2 A | d2 f a2 f | e3 d3 |
A2 d d2 f | e2 d B2 G | A2 B d2 B | A3 A3 |]
